X: 33
T:British Field March
M:4/4
L:1/8
Q:90
S:As played by Hookes Law learned from Janet Kerr
O:Quincy Dillion - (Fifer in the American Civil War)
Z:Johnny Adams -Village Music Project
K:Am
AB cd e2 a2 | ga ge dB GB | AB cd e2 a2 | g2 ^f2 e4 | 
AB cd e2 a2 | ga ge dB GB | g2 ge dB AG | EGAB A4 :||:
AB (3cBA BcdB | G2 Bc dB (G2 | G3)B cB AG | EGAB A4 | 
AB (3cBA BcdB | G2 Bc dB G2 | g3 e dBAG |  EGAB A4 :||
